X: '1'
T:Polka Yann
C:Laurence Beaudry
N:©Laurence Beaudry
R:polka
M:2/4
L:1/8
K:A
c>e fe | a>g fe | c>e fe | ce B2 | A>F Ec | Af ec |1 a>b af | ec B2 :|2 "Fin" a>f ec | Bc A2 |:
E>F EC | EA FA | EA FA | Bc B2 |1 e>f ga | ba gf | g>f ed | cA B2 :|2 d>c de | B>A Bc | B>c BA | GF E2 |]
